X: 1148
T: Cooley's Reel (A64)
N: page A64
N: heptatonic
N: matches 73
S: Bernie Waugh
R: Reel
M: 4/4
L: 1/8
K: Edor
|:D|\
"Em"EBBA B2EB|B2AB dBAG|"D"(3FED AD BDAD|(3FED FA dAFD| "Em"EBBA B2EB|
B2AB defg| "D"afec dBAF|"Bm"DEFD "Em"E3:: g/f/| "Em"eB ~B2 efgf|eB ~B2 gedB|
"D" A2 FA DAFB|~D2FA "Bm"B^cdf| "Em"eB ~B2 efgf|eB ~B2 defg|\
"D" afec dBAF|"Bm"DEFD "Em"E3:|
